X: 13920
T: Foxhunter, The
R: slip jig
M: 9/8
K: Dmajor
F3 F3/2D3/2 G3/2E3/2|F3 F3/2D3/2 E3/2D3/2|~F3 F3 G3/2B3/2|A3/2F3/2 D3/2|
B3 B3/2A3/2 G3/2A3/2|B3/2E3/2 E3/2D3/2 G3/2A3/2|B3 B3/2A3/2 G3/2B3/2|A3/2|

